contents/images/logos/posthog-icon-white.svg

<svg xmlns="http://www.w3.org/2000/svg" width="300" height="300" fill="none" viewBox="0 0 300 300"><rect width="300" height="300" fill="#000"/><path fill="#fff" d="M33 179.379L72.0038 218.33H33V179.379ZM33 169.641L81.7548 218.33H120.759L33 130.689V169.641ZM33 120.951L130.51 218.33H169.513L33 82V120.951ZM81.7548 120.951L179.264 218.33V179.379L81.7548 82V120.951ZM130.51 82V120.951L179.264 169.641V130.689L130.51 82Z"/><path fill="#fff" d="M266.863 203.174C256.87 203.174 247.291 199.208 240.231 192.158L186 138V218.754H266.863V203.174Z"/><path fill="#000" d="M209.563 202.75C213.871 202.75 217.363 199.262 217.363 194.959C217.363 190.657 213.871 187.169 209.563 187.169C205.254 187.169 201.762 190.657 201.762 194.959C201.762 199.262 205.254 202.75 209.563 202.75Z"/><path fill="#fff" d="M33 218.33H72.0038L33 179.379V218.33Z"/><path fill="#fff" d="M81.7548 130.689L33 82V120.951L81.7548 169.641V130.689Z"/><path fill="#fff" d="M33 130.689V169.641L81.7548 218.33V179.379L33 130.689Z"/><path fill="#fff" d="M130.51 130.689L81.7548 82V120.951L130.51 169.641V130.689Z"/><path fill="#fff" d="M81.7548 218.33H120.759L81.7548 179.379V218.33Z"/><path fill="#fff" d="M81.7548 130.689V169.641L130.51 218.33V179.379L81.7548 130.689Z"/></svg>

<svg fill="none" viewBox="0 0 300 300"><path fill="#000" d="M0 0h300v300H0z"/><path fill="#fff" d="M33 179.379l39.004 38.951H33v-38.951zm0-9.738l48.755 48.689h39.004L33 130.689v38.952zm0-48.69l97.51 97.379h39.003L33 82v38.951zm48.755 0l97.509 97.379v-38.951L81.754 82v38.951zM130.51 82v38.951l48.754 48.69v-38.952L130.51 82zm136.353 121.174a37.692 37.692 0 01-26.632-11.016L186 138v80.754h80.863v-15.58z"/><path fill="#000" d="M209.563 202.75c4.308 0 7.8-3.488 7.8-7.791 0-4.302-3.492-7.79-7.8-7.79-4.309 0-7.801 3.488-7.801 7.79 0 4.303 3.492 7.791 7.801 7.791z"/><path fill="#fff" d="M33 218.33h39.004L33 179.379v38.951zm48.755-87.641L33 82v38.951l48.755 48.69v-38.952zm-48.755 0v38.952l48.755 48.689v-38.951L33 130.689zm97.51 0L81.755 82v38.951l48.755 48.69v-38.952zM81.755 218.33h39.004l-39.004-38.951v38.951zm0-87.641v38.952l48.755 48.689v-38.951l-48.755-48.69z"/></svg>
